X:1
T:Safe Passage, 10.7.10.7
T:Safe Passage, 10.7.10.7
T:Scott Werdebaugh, 2017
T:© 2017 Scott Werdebaugh. Reproduce or publish freely for Christian worship or devotions. Courtesy of the Cyber Hymnal™
C:Scott Werdebaugh, 2017
Z:© 2017 Scott Werdebaugh. Reproduce or publish freely for Christian worship or devotions.
Z:Courtesy of the Cyber Hymnal™
%%score 1 2
L:1/8
Q:1/4=112
M:4/4
K:C
V:1 treble 
V:2 bass 
V:1
"^Meditatively" [CE]4 [CE]2 [DF]2 | [EG]6 [EG]2 | [Ec]4 [DB]2 [CA][CA] | [DG]6 z2 | %4
 [Ec]4 [DB]2 [Ec]2 | [GB]4 [^FA]2 [FA]2 | [DB]6 z2 | [Ec]4 [Ec]2 [DB]2 | [CA]4 [EG]2 [EG]2 | %9
 [CA]4 [DG]2 [DF]2 | [EG]6 z2 | [CA]2- [CA]2 [EG]2 [DF]2 | [EG]4 [B,E]2 [B,D]2 | %13
 !fermata![G,C]6 !breath!z2 |] %14
V:2
 [C,G,]4 [C,G,]2 [G,B,]2 | [G,C]6 [C,G,]2 | [C,G,]4 [G,,G,]2 [F,A,][F,A,] | [G,B,]6 z2 | %4
 [C,G,]4 [G,,G,]2 [C,G,]2 | [D,G,]4 [D,A,]2 [D,A,]2 | [G,,G,]6 z2 | [C,G,]4 [C,G,]2 [G,,G,]2 | %8
 [F,A,]4 [C,G,]2 [C,G,]2 | [F,A,]4 [G,B,]2 [G,B,]2 | [C,G,]6 z2 | %11
 [F,A,]2- [F,A,]2 [C,G,]2 [G,B,]2 | [C,G,]4 [G,,G,]2 [G,,F,]2 | !fermata![C,E,]6 !breath!z2 |] %14

